packages/match-icons/twilio/svg/hospitality.svg

<svg fill="none" height="32" viewBox="0 0 32 32" width="32" xmlns="http://www.w3.org/2000/svg"><g stroke="#394762" stroke-linecap="round" stroke-linejoin="round" stroke-width="1.7"><path d="m18 19c-.2449-1.944-1.1947-3.7306-2.6693-5.0209-1.4745-1.2902-3.3714-1.9945-5.3307-1.9791-2.0088-.0157-3.95.7249-5.43784 2.0746-1.48785 1.3498-2.41343 3.2099-2.59283 5.2107"/><path d="m14.5 5.5c0 1.19347-.4741 2.33807-1.318 3.18198s-1.9885 1.31802-3.182 1.31802c-1.19347 0-2.33807-.47411-3.18198-1.31802s-1.31802-1.98851-1.31802-3.18198v-3.5c0-.26522.10536-.51957.29289-.70711.18754-.18753.44189-.29289.70711-.29289h7c.2652 0 .5196.10536.7071.29289.1875.18754.2929.44189.2929.70711z"/><path d="m31 31h-30v-10c0-.5304.21071-1.0391.58579-1.4142.37507-.3751.88378-.5858 1.41421-.5858h26c.5304 0 1.0391.2107 1.4142.5858s.5858.8838.5858 1.4142z"/><path d="m5.508 5.74402c1.4447-.49939 2.96343-.75093 4.492-.744 1.531-.00693 3.052.24553 4.4987.74666"/><path d="m20 19c.0175-.6566.1642-1.3034.4316-1.9033.2675-.5999.6505-1.1413 1.1271-1.5932.4767-.4519 1.0377-.8055 1.6511-1.0406.6133-.2351 1.2669-.3471 1.9235-.3296s1.3034.1642 1.9033.4316c.5999.2675 1.1413.6505 1.5932 1.1272.4519.4766.8055 1.0376 1.0406 1.651.2351.6133.3471 1.2669.3296 1.9235"/><path d="m25 14v-3"/><path d="m23 11h4"/></g></svg>

<svg width="32" height="32" viewBox="0 0 32 32" fill="none" xmlns="http://www.w3.org/2000/svg">
<path d="M18 19C17.7551 17.056 16.8053 15.2694 15.3307 13.9791C13.8562 12.6889 11.9593 11.9846 10 12C7.9912 11.9843 6.05 12.7249 4.56216 14.0746C3.07431 15.4244 2.14873 17.2845 1.96933 19.2853" stroke="#394762" stroke-width="1.7" stroke-linecap="round" stroke-linejoin="round"/>
<path d="M14.5 5.5C14.5 6.69347 14.0259 7.83807 13.182 8.68198C12.3381 9.52589 11.1935 10 10 10C8.80653 10 7.66193 9.52589 6.81802 8.68198C5.97411 7.83807 5.5 6.69347 5.5 5.5V2C5.5 1.73478 5.60536 1.48043 5.79289 1.29289C5.98043 1.10536 6.23478 1 6.5 1H13.5C13.7652 1 14.0196 1.10536 14.2071 1.29289C14.3946 1.48043 14.5 1.73478 14.5 2V5.5Z" stroke="#394762" stroke-width="1.7" stroke-linecap="round" stroke-linejoin="round"/>
<path d="M31 31H1V21C1 20.4696 1.21071 19.9609 1.58579 19.5858C1.96086 19.2107 2.46957 19 3 19H29C29.5304 19 30.0391 19.2107 30.4142 19.5858C30.7893 19.9609 31 20.4696 31 21V31Z" stroke="#394762" stroke-width="1.7" stroke-linecap="round" stroke-linejoin="round"/>
<path d="M5.508 5.74402C6.9527 5.24463 8.47143 4.99309 10 5.00002C11.531 4.99309 13.052 5.24555 14.4987 5.74668" stroke="#394762" stroke-width="1.7" stroke-linecap="round" stroke-linejoin="round"/>
<path d="M20 19C20.0175 18.3434 20.1642 17.6966 20.4316 17.0967C20.6991 16.4968 21.0821 15.9554 21.5587 15.5035C22.0354 15.0516 22.5964 14.698 23.2098 14.4629C23.8231 14.2278 24.4767 14.1158 25.1333 14.1333C25.7899 14.1508 26.4367 14.2975 27.0366 14.5649C27.6365 14.8324 28.1779 15.2154 28.6298 15.6921C29.0817 16.1687 29.4353 16.7297 29.6704 17.3431C29.9055 17.9564 30.0175 18.61 30 19.2666" stroke="#394762" stroke-width="1.7" stroke-linecap="round" stroke-linejoin="round"/>
<path d="M25 14V11" stroke="#394762" stroke-width="1.7" stroke-linecap="round" stroke-linejoin="round"/>
<path d="M23 11H27" stroke="#394762" stroke-width="1.7" stroke-linecap="round" stroke-linejoin="round"/>
</svg>
